X:144
T:Music for a Found Harmonium
R:reel
M:4/4
L:1/8
C:Simon Jeffis
S:Hariett Bartlett: Eyes Wide Open
K:D
FDGD FDDD | FDGD FDDD | FDGD FDDD | EDCD FDDD ::
EDCD EDCD | FD=CD FD=CD | GDED CDGD | FDDD D4 ::
K:C
cFEF GFEF | cFEF E3F | cFEF GFEF | cFEF E3F :|
K:F
BFDF GFDF | BFDF FEF | AFEF GEzF | BFEF GEzF |
K:D
cGEG CGGG | cGEG CGGG | cGEG CGGG | cGEG CGGG |:
FDGD FDDD | FDGD FDDD | FDGD FDDD | EDCD FDDD ::
 EDCD EDCD | FD=CD FD=CD | GDED CDGD | FDDD D3 :|
